src/lib/packages/icons/src/assets/line/camera-square.svg

<svg width="24" height="24" viewBox="0 0 24 24" fill="none" xmlns="http://www.w3.org/2000/svg">
<path d="M15.333 7.91699H14.7629L14.5691 7.33398C14.3531 6.68598 13.7499 6.25098 13.0669 6.25098H10.9341C10.2511 6.25098 9.64811 6.68601 9.43311 7.33301L9.23804 7.91699H8.66797C7.13197 7.91699 6.25098 8.79798 6.25098 10.334V15.334C6.25098 16.87 7.13197 17.751 8.66797 17.751H15.334C16.87 17.751 17.751 16.87 17.751 15.334V10.334C17.75 8.79698 16.869 7.91699 15.333 7.91699ZM16.25 15.333C16.25 16.027 16.027 16.25 15.333 16.25H8.66699C7.97299 16.25 7.75 16.027 7.75 15.333V10.333C7.75 9.63901 7.97299 9.41602 8.66699 9.41602H9.7771C10.0991 9.41602 10.386 9.20908 10.488 8.90308L10.9331 7.74902L13.145 7.80688L13.511 8.90308C13.613 9.20908 13.8999 9.41602 14.2219 9.41602H15.332C16.026 9.41602 16.249 9.63901 16.249 10.333V15.333H16.25ZM12 10.417C10.667 10.417 9.58301 11.501 9.58301 12.834C9.58301 14.167 10.667 15.251 12 15.251C13.333 15.251 14.417 14.167 14.417 12.834C14.417 11.501 13.333 10.417 12 10.417ZM12 13.75C11.494 13.75 11.083 13.339 11.083 12.833C11.083 12.327 11.494 11.916 12 11.916C12.506 11.916 12.917 12.327 12.917 12.833C12.917 13.339 12.506 13.75 12 13.75ZM17.625 2.25H6.375C3.715 2.25 2.25 3.715 2.25 6.375V17.625C2.25 20.285 3.715 21.75 6.375 21.75H17.625C20.285 21.75 21.75 20.285 21.75 17.625V6.375C21.75 3.715 20.285 2.25 17.625 2.25ZM20.25 17.625C20.25 19.465 19.465 20.25 17.625 20.25H6.375C4.535 20.25 3.75 19.465 3.75 17.625V6.375C3.75 4.535 4.535 3.75 6.375 3.75H17.625C19.465 3.75 20.25 4.535 20.25 6.375V17.625Z" fill="currentColor"/>
</svg>

<svg xmlns="http://www.w3.org/2000/svg" width="24" height="24" fill="none"><path fill="currentColor" d="M15.333 7.917h-.57l-.194-.583a1.581 1.581 0 0 0-1.502-1.083h-2.133c-.683 0-1.286.435-1.5 1.082l-.196.584h-.57c-1.536 0-2.417.881-2.417 2.417v5c0 1.536.881 2.417 2.417 2.417h6.666c1.536 0 2.417-.881 2.417-2.417v-5c-.001-1.537-.882-2.417-2.418-2.417Zm.917 7.416c0 .694-.223.917-.917.917H8.667c-.694 0-.917-.223-.917-.917v-5c0-.694.223-.917.917-.917h1.11a.75.75 0 0 0 .711-.513l.445-1.154 2.212.058.366 1.096a.75.75 0 0 0 .71.513h1.111c.694 0 .917.223.917.917v5h.001ZM12 10.417a2.42 2.42 0 0 0-2.417 2.417A2.42 2.42 0 0 0 12 15.251a2.42 2.42 0 0 0 2.417-2.417A2.42 2.42 0 0 0 12 10.417Zm0 3.333a.918.918 0 1 1 .001-1.835A.918.918 0 0 1 12 13.75Zm5.625-11.5H6.375c-2.66 0-4.125 1.465-4.125 4.125v11.25c0 2.66 1.465 4.125 4.125 4.125h11.25c2.66 0 4.125-1.465 4.125-4.125V6.375c0-2.66-1.465-4.125-4.125-4.125Zm2.625 15.375c0 1.84-.785 2.625-2.625 2.625H6.375c-1.84 0-2.625-.785-2.625-2.625V6.375c0-1.84.785-2.625 2.625-2.625h11.25c1.84 0 2.625.785 2.625 2.625v11.25Z"/></svg>
